X:1
T:Sultan's Polka
T:Tric-trac polka
T:1,2,3,4,5
S:Greg Stephens, Natntwich Fiddle Day workshop
M:4/4
R:Polka
K:D
|: f4 f3f | e2d2 d3d | c2d2 e2f2 | a2^g2 =g4 | g4 g3g | f2e2 e4 | d2c2 B2c2 | e2d2 d4:|
|: f2B2 f2B2 | f2B2 BB B2| d2B2 BB B2 | c2F2 F4 | f2B2 f2B2 | f2B2 BB B2 | d2d2 cBdc | B4 B4 :|
|: f4 f3f | e2d2 d3d | c2d2 e2f2 | a2^g2 =g4 | g4 g3g | f2e2 e4 | d2c2 B2c2 | e2d2 d4:|
K:G
|: D4 G3A | B6 B2 | c2c2 E2c2 | B6 zB | d2d2 A3A | B2B2 G3A | B2A2 E2F2 | G8 :|
